X:126
T: DAS LIEBEN STEHT EIM JEDEN FREI
N: E0718
O: Europa, Mitteleuropa, Deutschland, Hildburghausen
R: Liebes - Lied, Leid, Klage
M: 4/4
L: 1/8
K: G
D2 | D2G2G2B2 | BAG2A2
B2 | c2A2B2A2 | G4z2
G2 | B2d2d2ed | c2c2c2
dc | B2B2B2G2 | A2A2A2
B2 | dcA2B2A2 | G4z2

